svgs/sharp-light/percent.svg

<svg xmlns="http://www.w3.org/2000/svg" viewBox="0 0 384 512"><!--! Font Awesome Pro 6.5.2 by @fontawesome - https://fontawesome.com License - https://fontawesome.com/license (Commercial License) Copyright 2024 Fonticons, Inc. --><path d="M96 96H32v64H96V96zM32 64H96h32V96v64 32H96 32 0V160 96 64H32zM4.7 420.7l352-352 22.6 22.6-352 352L4.7 420.7zM288 352v64h64V352H288zm-32-32h32 64 32v32 64 32H352 288 256V416 352 320z"/></svg>

<svg xmlns="http://www.w3.org/2000/svg" viewBox="0 0 384 512"><!--! Font Awesome Pro 6.6.0 by @fontawesome - https://fontawesome.com License - https://fontawesome.com/license (Commercial License) Copyright 2024 Fonticons, Inc. --><path d="M96 96L32 96l0 64 64 0 0-64zM32 64l64 0 32 0 0 32 0 64 0 32-32 0-64 0L0 192l0-32L0 96 0 64l32 0zM4.7 420.7l352-352 22.6 22.6-352 352L4.7 420.7zM288 352l0 64 64 0 0-64-64 0zm-32-32l32 0 64 0 32 0 0 32 0 64 0 32-32 0-64 0-32 0 0-32 0-64 0-32z"/></svg>
